coreui/free/cil-birthday-cake.svg

<svg xmlns="http://www.w3.org/2000/svg" viewBox="0 0 512 512">
  <path fill="var(--ci-primary-color, currentColor)" d="M422,226.067H312v-96H276A85.425,85.425,0,0,0,293.054,78.5c0-27.64-13.079-53.611-34.133-67.776l-8.932-6.01-8.931,6.01C220,24.891,206.925,50.861,206.925,78.5a85.425,85.425,0,0,0,17.059,51.566H184v96H90a58.066,58.066,0,0,0-58,58V464a32.036,32.036,0,0,0,32,32H448a32.036,32.036,0,0,0,32-32V284.067A58.066,58.066,0,0,0,422,226.067ZM249.989,45.542c6.99,8.684,11.065,20.466,11.065,32.959s-4.075,24.276-11.065,32.959C243,102.777,238.925,90.994,238.925,78.5S243,54.226,249.989,45.542ZM216,162.067h64v64H216Zm-152,122a26.03,26.03,0,0,1,26-26H422a26.03,26.03,0,0,1,26,26l0,31.577L426.4,325.175a33.284,33.284,0,0,1-26.809,0L362,308.588l-37.6,16.586a33.283,33.283,0,0,1-26.81,0L260,308.587,222.4,325.173a33.279,33.279,0,0,1-26.81,0L158,308.588l-37.593,16.585a33.279,33.279,0,0,1-26.81,0L64,312.117ZM448,464H64V347.093l16.678,7.358a65.355,65.355,0,0,0,52.644,0L158,343.563l24.679,10.888a65.353,65.353,0,0,0,52.643,0L260,343.563l24.677,10.888a65.351,65.351,0,0,0,52.642,0L362,343.563l24.678,10.889a65.354,65.354,0,0,0,52.641,0l8.693-3.835L448.02,464Z" class="ci-primary"/>
</svg>

<svg viewBox="0 0 512 512" xmlns="http://www.w3.org/2000/svg"><path d="M422 226.067H312v-96h-36v0c11.14-14.88 17.13-32.99 17.05-51.57 0-27.64-13.08-53.62-34.14-67.776l-8.94-6.01 -8.94 6.01c-21.06 14.167-34.14 40.13-34.14 67.776h0c-.08 18.58 5.91 36.69 17.05 51.56h-39.99v96h-94v0c-32.02.03-57.97 25.98-58 58v179.93l-.001-.001c.01 17.66 14.33 31.98 32 32h384v0c17.66-.02 31.98-14.34 32-32V284.04v0c-.04-32.02-25.99-57.97-58-58ZM249.989 45.542c6.99 8.68 11.06 20.46 11.06 32.959 0 12.49-4.08 24.27-11.07 32.959 -6.99-8.69-11.07-20.47-11.07-32.96 0-12.5 4.07-24.274 11.06-32.96Zm-33.99 116.525h64v64h-64Zm-152 122h-.001c.01-14.36 11.64-25.99 26-26h332v0c14.35.01 25.98 11.64 26 26v31.57l-21.6 9.53v0c-8.55 3.75-18.27 3.75-26.81 0l-37.6-16.59 -37.6 16.58v0c-8.55 3.75-18.27 3.75-26.81-.001l-37.59-16.59 -37.6 16.58v0c-8.55 3.75-18.27 3.75-26.81 0l-37.59-16.59 -37.593 16.58h0c-8.55 3.75-18.27 3.75-26.81 0l-29.6-13.06Zm384 179.933h-384V347.09l16.67 7.35v0c16.77 7.38 35.87 7.38 52.64 0l24.67-10.89 24.67 10.88v0c16.77 7.37 35.87 7.37 52.64 0l24.67-10.89 24.67 10.88v0c16.77 7.37 35.87 7.37 52.64 0l24.68-10.89 24.67 10.88v0c16.77 7.37 35.86 7.37 52.64 0l8.69-3.84 0 113.38Z"/></svg>
